X: 35628
T: Sail-Maker's Wife, The
R: jig
M: 6/8
K: Ddorian
C|:~D2d dcA|G2A ~F2E|~D2d dcA|GAc dfe|
d2d dcA|G2A FDD|FGA cAG|1 FDC D2C:|2 FDC D3||
|:fed edc|ABc ~d3|f2d edc|AGE ~D3|
f3 edc|ABc AGE|~C2E {A}G2A|1 FDc ~d3:|2 FDC D2C||

